X: 1354
T: The Strawberry Blossom
R:Reel
N:1st Setting
N:Collected by Carey
B:O'Neill's 1354
Z:Transcribed by Trish O'Neil
M:C|
L:1/8
K:D
fddf edBc|d2efg2ag|fddf edBc|dBAFE2D2:|
faab afdf|afdfg2g2|faab afdf|gfedB2A2|
faab afdf|afdfg2g2|faa2faa2|gfedB2A2|]


